public/icons/tokens/rep.svg

<svg width="256" height="256" viewBox="0 0 256 256" fill="none" xmlns="http://www.w3.org/2000/svg">
  <path d="M255.75 128C255.75 198.554 198.554 255.75 128 255.75C57.4456 255.75 0.25 198.554 0.25 128C0.25 57.4456 57.4456 0.25 128 0.25C198.554 0.25 255.75 57.4456 255.75 128Z" fill="white" stroke="#383D51" stroke-width="0.5"/>
  <path d="M222.034 175.452L135.709 20.623C134.976 19.2659 133.89 18.1323 132.566 17.3422C131.241 16.5521 129.728 16.1349 128.186 16.1349C126.643 16.1349 125.13 16.5521 123.805 17.3422C122.481 18.1323 121.395 19.2659 120.662 20.623L34.3702 175.453C33.2761 177.399 32.9846 179.694 33.5578 181.852C34.131 184.009 35.5236 185.857 37.4392 187.003L123.862 238.679C125.23 239.457 126.777 239.866 128.35 239.866C129.924 239.866 131.47 239.457 132.838 238.679L219.13 187.102C221.007 185.896 222.353 184.018 222.892 181.853C223.431 179.688 223.123 177.398 222.03 175.453L222.034 175.452ZM156.792 113.053L154.68 111.271L154.548 111.139C153.876 110.59 153.171 110.083 152.436 109.621L152.304 109.489C151.611 109.027 150.885 108.532 150.06 108.07C149.928 108.07 149.928 107.938 149.829 107.938C149.106 107.497 148.357 107.1 147.585 106.75C147.453 106.75 147.453 106.618 147.354 106.618C146.661 106.255 145.836 105.925 145.011 105.562C144.879 105.562 144.879 105.43 144.78 105.43C144.087 105.199 143.361 104.836 142.668 104.605C140.76 103.89 138.795 103.338 136.794 102.955C135.24 105.858 133.21 108.479 130.788 110.71C134.353 110.974 137.851 111.81 141.15 113.185C143.024 113.992 144.833 114.94 146.562 116.023C146.608 116.028 146.652 116.042 146.692 116.065C146.731 116.087 146.766 116.118 146.793 116.155C147.253 116.431 147.684 116.751 148.08 117.112C148.301 117.234 148.501 117.39 148.674 117.574C149.101 117.852 149.499 118.173 149.862 118.531C150.093 118.762 150.324 118.894 150.555 119.125C150.918 119.488 151.248 119.719 151.611 120.082L152.304 120.775L153.261 121.732L153.954 122.425C154.204 122.765 154.48 123.085 154.779 123.382C155.01 123.646 155.241 123.976 155.472 124.207L156.165 125.263C156.398 125.559 156.597 125.88 156.759 126.22L157.452 127.276C157.628 127.608 157.826 127.928 158.046 128.233C158.277 128.596 158.409 128.926 158.64 129.289C158.871 129.652 159.003 129.982 159.234 130.345C159.366 130.708 159.597 131.038 159.696 131.401C159.869 131.841 160.067 132.271 160.29 132.688C161.281 135.099 161.958 137.628 162.303 140.212L163.359 144.337C163.821 146.119 168.078 161.166 177.944 166.248C189.263 172.122 204.211 179.448 210.085 182.248L132.538 228.648V196.869C132.538 191.82 142.538 185.913 147.123 183.933L147.354 183.801C148.311 183.339 149.235 182.844 150.192 182.283L150.555 182.052C152.564 180.861 154.454 179.48 156.198 177.927C156.33 177.795 156.561 177.696 156.66 177.465C156.891 177.333 157.023 177.102 157.254 177.003C157.848 176.541 158.31 175.947 158.904 175.485L159.135 175.254C159.746 174.683 160.298 174.053 160.785 173.373C160.917 173.142 161.148 173.01 161.247 172.779C161.708 172.254 162.138 171.704 162.534 171.129C162.666 170.997 162.765 170.766 162.897 170.667L164.316 168.555C164.316 168.423 164.448 168.423 164.448 168.324C165.042 167.367 165.636 166.311 166.23 165.387C164.059 162.702 162.199 159.779 160.686 156.675C160.085 158.42 159.334 160.109 158.442 161.724C158.079 162.417 157.617 163.143 157.254 163.836C157.122 163.968 157.122 164.067 157.023 164.067C156.659 164.639 156.262 165.19 155.835 165.717C155.703 165.849 155.604 166.08 155.472 166.179C155.106 166.735 154.674 167.245 154.185 167.697C154.053 167.829 154.053 167.928 153.954 167.928C151.115 171.149 147.674 173.783 143.823 175.683L143.13 176.046C141.117 176.871 123.83 184.758 123.83 196.637V228.415L46.1192 182.151C51.1682 179.082 65.7862 170.371 77.7982 166.609C82.5172 165.091 92.5152 171.427 98.1582 176.009L98.5212 176.372C99.2485 177.103 100.032 177.776 100.864 178.385L101.095 178.616C102.879 180.112 104.815 181.417 106.87 182.51L108.289 183.203C108.335 183.208 108.379 183.222 108.419 183.245C108.458 183.268 108.493 183.298 108.52 183.335C109.807 184.028 111.094 184.622 112.513 185.216C112.705 185.307 112.904 185.384 113.107 185.447C113.239 185.447 113.338 185.579 113.569 185.579C115.582 186.272 117.562 186.866 119.575 187.361C121.166 184.446 123.242 181.824 125.713 179.606C122.404 179.381 119.146 178.67 116.044 177.494C115.912 177.362 115.681 177.362 115.582 177.263C115.213 177.151 114.859 176.996 114.526 176.801C114.394 176.669 114.163 176.669 114.064 176.57C113.701 176.438 113.371 176.207 113.107 176.108C110.801 174.984 108.631 173.6 106.639 171.983L103.57 169.145C100.734 166.652 97.6613 164.442 94.3962 162.545C86.7402 158.189 80.2732 156.77 75.3232 158.321C65.0932 161.621 53.4122 167.858 46.3502 171.982L123.93 32.595V93.709C123.93 95.821 120.762 101.464 110.038 106.314L109.345 106.677C108.289 107.139 107.332 107.733 106.276 108.327L106.045 108.459C104.015 109.681 102.084 111.06 100.27 112.584C99.1274 113.514 98.0675 114.54 97.1022 115.653L96.9702 115.785C95.9269 116.797 94.9771 117.902 94.1322 119.085L94.0002 119.217C93.5382 119.811 93.1752 120.405 92.7132 120.999C92.7132 121.131 92.5812 121.131 92.5812 121.23C92.2182 121.824 91.8882 122.286 91.5252 122.88C91.5252 123.012 91.3932 123.012 91.3932 123.111L90.3372 124.893C90.2052 125.025 90.2052 125.124 90.1062 125.355C89.7432 125.949 89.5122 126.543 89.2812 127.005C89.2764 127.051 89.2622 127.095 89.2395 127.134C89.2168 127.174 89.186 127.209 89.1492 127.236C88.9182 127.83 88.6872 128.292 88.4562 128.886C88.365 129.078 88.2878 129.277 88.2252 129.48L87.5322 131.262C87.4409 131.454 87.3637 131.653 87.3012 131.856C87.1914 132.3 87.0366 132.731 86.8392 133.143C86.7475 133.369 86.6703 133.6 86.6082 133.836C86.4762 134.43 86.2452 135.024 86.1462 135.486C86.0539 135.756 85.9768 136.032 85.9152 136.311C85.7832 136.674 85.7832 137.136 85.6842 137.499C85.5522 137.862 85.5522 138.192 85.4532 138.555C85.3212 139.017 85.3212 139.512 85.2222 139.974C85.2222 140.337 85.0902 140.568 85.0902 140.931C85.0902 141.393 84.9582 141.756 84.9582 142.218C84.9797 142.651 84.9352 143.085 84.8262 143.505V145.287C84.8121 147.419 84.9666 149.548 85.2882 151.656C88.6373 152.514 91.8803 153.743 94.9572 155.319C94.0172 152.224 93.5065 149.015 93.4392 145.782V145.188C93.4174 144.405 93.4615 143.621 93.5712 142.845V142.251C93.6011 141.575 93.6783 140.903 93.8022 140.238V140.007C93.9342 139.314 94.0332 138.588 94.1652 137.763C94.1652 137.532 94.2972 137.4 94.2972 137.169C94.4292 136.575 94.6602 135.981 94.7592 135.387C94.7592 135.255 94.8912 135.156 94.8912 135.024L95.5842 132.912C95.7162 132.78 95.7162 132.549 95.8152 132.45C96.0462 131.856 96.2772 131.262 96.5082 130.8C96.6402 130.668 96.6402 130.569 96.7392 130.338C97.0316 129.679 97.3852 129.05 97.7952 128.457C97.8838 128.344 97.9611 128.222 98.0262 128.094C98.3892 127.5 98.6202 127.038 98.9832 126.444C99.0718 126.331 99.1491 126.209 99.2142 126.081C99.6103 125.464 100.04 124.869 100.501 124.299C100.501 124.282 100.504 124.264 100.51 124.248C100.517 124.232 100.527 124.217 100.539 124.205C100.551 124.192 100.566 124.183 100.582 124.176C100.598 124.17 100.616 124.167 100.633 124.167C101.095 123.573 101.458 123.111 101.92 122.517C102.009 122.404 102.086 122.282 102.151 122.154C104.276 119.808 106.694 117.745 109.345 116.016L113.008 114.234C115.021 113.409 132.213 105.292 132.213 93.379V32.502L210.519 173.076C203.556 169.676 191.219 163.539 181.678 158.59C176.134 155.752 172.504 145.754 171.448 142.09L170.392 137.866C170.303 135.581 169.869 133.322 169.105 131.166C166.619 124.174 162.381 117.937 156.797 113.05" fill="#553680"/>
</svg>

<svg width="256" height="256" fill="none" xmlns="http://www.w3.org/2000/svg"><path d="M255.75 128c0 70.554-57.196 127.75-127.75 127.75S.25 198.554.25 128 57.446.25 128 .25 255.75 57.446 255.75 128Z" fill="#fff" stroke="#383D51" stroke-width=".5"/><path d="M222.034 175.452 135.709 20.623a8.555 8.555 0 0 0-7.523-4.488 8.552 8.552 0 0 0-7.524 4.488L34.37 175.453a8.567 8.567 0 0 0 3.07 11.55l86.422 51.676a9.08 9.08 0 0 0 8.976 0l86.292-51.577a8.753 8.753 0 0 0 2.9-11.649l.004-.001Zm-65.242-62.399-2.112-1.782-.132-.132a21.013 21.013 0 0 0-2.112-1.518l-.132-.132c-.693-.462-1.419-.957-2.244-1.419-.132 0-.132-.132-.231-.132a20.812 20.812 0 0 0-2.244-1.188c-.132 0-.132-.132-.231-.132-.693-.363-1.518-.693-2.343-1.056-.132 0-.132-.132-.231-.132-.693-.231-1.419-.594-2.112-.825a36.055 36.055 0 0 0-5.874-1.65 29.421 29.421 0 0 1-6.006 7.755 33.33 33.33 0 0 1 10.362 2.475 39.985 39.985 0 0 1 5.412 2.838.331.331 0 0 1 .231.132c.46.276.891.596 1.287.957.221.122.421.278.594.462.427.278.825.599 1.188.957.231.231.462.363.693.594.363.363.693.594 1.056.957l.693.693.957.957.693.693c.25.34.526.66.825.957.231.264.462.594.693.825l.693 1.056c.233.296.432.617.594.957l.693 1.056c.176.332.374.652.594.957.231.363.363.693.594 1.056.231.363.363.693.594 1.056.132.363.363.693.462 1.056.173.44.371.87.594 1.287a30.362 30.362 0 0 1 2.013 7.524l1.056 4.125c.462 1.782 4.719 16.829 14.585 21.911 11.319 5.874 26.267 13.2 32.141 16l-77.547 46.4v-31.779c0-5.049 10-10.956 14.585-12.936l.231-.132a39.565 39.565 0 0 0 2.838-1.518l.363-.231a36.387 36.387 0 0 0 5.643-4.125c.132-.132.363-.231.462-.462.231-.132.363-.363.594-.462.594-.462 1.056-1.056 1.65-1.518l.231-.231a12.671 12.671 0 0 0 1.65-1.881c.132-.231.363-.363.462-.594.461-.525.891-1.075 1.287-1.65.132-.132.231-.363.363-.462l1.419-2.112c0-.132.132-.132.132-.231.594-.957 1.188-2.013 1.782-2.937a45.712 45.712 0 0 1-5.544-8.712 31.988 31.988 0 0 1-2.244 5.049c-.363.693-.825 1.419-1.188 2.112-.132.132-.132.231-.231.231a17.813 17.813 0 0 1-1.188 1.65c-.132.132-.231.363-.363.462a8.227 8.227 0 0 1-1.287 1.518c-.132.132-.132.231-.231.231a32.918 32.918 0 0 1-10.131 7.755l-.693.363c-2.013.825-19.3 8.712-19.3 20.591v31.778l-77.71-46.264c5.048-3.069 19.666-11.78 31.678-15.542 4.72-1.518 14.717 4.818 20.36 9.4l.363.363a19.87 19.87 0 0 0 2.343 2.013l.231.231a33.39 33.39 0 0 0 5.775 3.894l1.419.693a.331.331 0 0 1 .231.132 44.557 44.557 0 0 0 3.993 1.881c.192.091.391.168.594.231.132 0 .231.132.462.132a68.953 68.953 0 0 0 6.006 1.782 29.255 29.255 0 0 1 6.138-7.755 33.73 33.73 0 0 1-9.669-2.112c-.132-.132-.363-.132-.462-.231a4.912 4.912 0 0 1-1.056-.462c-.132-.132-.363-.132-.462-.231-.363-.132-.693-.363-.957-.462a33.671 33.671 0 0 1-6.468-4.125l-3.069-2.838a58.107 58.107 0 0 0-9.174-6.6c-7.656-4.356-14.123-5.775-19.073-4.224-10.23 3.3-21.91 9.537-28.973 13.661l77.58-139.387v61.114c0 2.112-3.168 7.755-13.892 12.605l-.693.363c-1.056.462-2.013 1.056-3.069 1.65l-.231.132a45.286 45.286 0 0 0-5.775 4.125 25.497 25.497 0 0 0-3.168 3.069l-.132.132a24.158 24.158 0 0 0-2.838 3.3l-.132.132c-.462.594-.825 1.188-1.287 1.782 0 .132-.132.132-.132.231-.363.594-.693 1.056-1.056 1.65 0 .132-.132.132-.132.231l-1.056 1.782c-.132.132-.132.231-.23.462-.364.594-.595 1.188-.826 1.65a.323.323 0 0 1-.132.231c-.23.594-.462 1.056-.693 1.65a4.424 4.424 0 0 0-.23.594l-.694 1.782a4.398 4.398 0 0 0-.23.594 6.7 6.7 0 0 1-.463 1.287 5.699 5.699 0 0 0-.23.693c-.133.594-.364 1.188-.463 1.65-.092.27-.17.546-.23.825-.133.363-.133.825-.232 1.188-.132.363-.132.693-.23 1.056-.133.462-.133.957-.232 1.419 0 .363-.132.594-.132.957 0 .462-.132.825-.132 1.287.022.433-.023.867-.132 1.287v1.782a40.45 40.45 0 0 0 .462 6.369 46.553 46.553 0 0 1 9.67 3.663 35.35 35.35 0 0 1-1.519-9.537v-.594c-.022-.783.023-1.567.132-2.343v-.594c.03-.676.107-1.348.231-2.013v-.231c.132-.693.231-1.419.363-2.244 0-.231.132-.363.132-.594.132-.594.363-1.188.462-1.782 0-.132.132-.231.132-.363l.693-2.112c.132-.132.132-.363.231-.462.231-.594.462-1.188.693-1.65.132-.132.132-.231.231-.462.293-.659.646-1.288 1.056-1.881.089-.113.166-.235.231-.363.363-.594.594-1.056.957-1.65.089-.113.166-.235.231-.363.396-.617.826-1.212 1.287-1.782 0-.017.003-.035.009-.051a.142.142 0 0 1 .029-.043.126.126 0 0 1 .094-.038c.462-.594.825-1.056 1.287-1.65.089-.113.166-.235.231-.363a36.919 36.919 0 0 1 7.194-6.138l3.663-1.782c2.013-.825 19.205-8.942 19.205-20.855V32.502l78.306 140.574c-6.963-3.4-19.3-9.537-28.841-14.486-5.544-2.838-9.174-12.836-10.23-16.5l-1.056-4.224a22.706 22.706 0 0 0-1.287-6.7 43.392 43.392 0 0 0-12.308-18.116" fill="#553680"/></svg>
